motivators/badges/pix/pyramide_02.svg

<?xml version="1.0" encoding="UTF-8" standalone="no"?>
<!-- Generator: Adobe Illustrator 16.0.0, SVG Export Plug-In . SVG Version: 6.00 Build 0)  -->

<svg
   xmlns:dc="http://purl.org/dc/elements/1.1/"
   xmlns:cc="http://creativecommons.org/ns#"
   xmlns:rdf="http://www.w3.org/1999/02/22-rdf-syntax-ns#"
   xmlns:svg="http://www.w3.org/2000/svg"
   xmlns="http://www.w3.org/2000/svg"
   xmlns:sodipodi="http://sodipodi.sourceforge.net/DTD/sodipodi-0.dtd"
   xmlns:inkscape="http://www.inkscape.org/namespaces/inkscape"
   version="1.1"
   id="Calque_1"
   x="0px"
   y="0px"
   width="260px"
   height="260px"
   viewBox="0 0 260 260"
   enable-background="new 0 0 260 260"
   xml:space="preserve"
   inkscape:version="0.91 r13725"
   sodipodi:docname="pyramide_02.svg"><metadata
     id="metadata68"><rdf:RDF><cc:Work
         rdf:about=""><dc:format>image/svg+xml</dc:format><dc:type
           rdf:resource="http://purl.org/dc/dcmitype/StillImage" /></cc:Work></rdf:RDF></metadata><defs
     id="defs66" /><sodipodi:namedview
     pagecolor="#ffffff"
     bordercolor="#666666"
     borderopacity="1"
     objecttolerance="10"
     gridtolerance="10"
     guidetolerance="10"
     inkscape:pageopacity="0"
     inkscape:pageshadow="2"
     inkscape:window-width="746"
     inkscape:window-height="480"
     id="namedview64"
     showgrid="false"
     inkscape:zoom="0.90769231"
     inkscape:cx="130"
     inkscape:cy="130"
     inkscape:window-x="65"
     inkscape:window-y="24"
     inkscape:window-maximized="0"
     inkscape:current-layer="Calque_1" /><g
     id="calque00"
     transform="matrix(0.66,0,0,0.66,44.19983,44.19983)"><g
       id="g4"><g
         id="g6"><path
           enable-background="new    "
           d="m 162.652,50.231 c -2.94,0 -5.32,2.38 -5.32,5.322 l 0,39.031 -16.941,0 c -2.938,0 -5.322,2.381 -5.322,5.322 0,2.937 2.385,5.322 5.322,5.322 l 22.262,0 c 2.938,0 5.322,-2.383 5.322,-5.322 l 0,-44.353 c 0,-2.942 -2.385,-5.322 -5.323,-5.322 z"
           id="path8"
           inkscape:connector-curvature="0"
           style="opacity:0.5;fill:#999999" /><path
           enable-background="new    "
           d="m 162.652,34.037 c -2.94,0 -5.32,2.383 -5.32,5.322 l 0,0 c 0,2.937 2.379,5.322 5.32,5.322 2.938,0 5.322,-2.385 5.322,-5.322 l 0,0 c 0.001,-2.942 -2.384,-5.322 -5.322,-5.322 z"
           id="path10"
           inkscape:connector-curvature="0"
           style="opacity:0.5;fill:#999999" /><path
           enable-background="new    "
           d="m 88.107,0.002 c -10.498,0 -19.04,8.54 -19.04,19.039 l 0,90.022 c 0,10.5 8.542,19.039 19.04,19.039 l 83.79,0 c 10.498,0 19.037,-8.54 19.037,-19.039 l 0,-90.024 c 0,-10.497 -8.539,-19.037 -19.037,-19.037 l -83.79,0 z m 92.182,109.061 0,0 c 0,4.63 -3.766,8.395 -8.393,8.395 l -83.79,0 c -4.626,0 -8.393,-3.765 -8.393,-8.395 L 79.71,19.041 c 0,-4.63 3.771,-8.393 8.397,-8.393 l 83.79,0 c 4.629,0 8.394,3.763 8.394,8.39 l -0.002,90.025 0,0 z"
           id="path12"
           inkscape:connector-curvature="0"
           style="opacity:0.5;fill:#999999" /></g></g><g
       id="g14"><g
         id="g16"><path
           d="m 43.919,243.171 172.167,0 c 1.215,0 2.207,-0.991 2.207,-2.212 l 0,-90.025 c 0,-1.216 -0.992,-2.207 -2.207,-2.207 l -172.167,0 c -1.22,0 -2.211,0.992 -2.211,2.211 l 0.003,90.021 c 0,1.221 0.988,2.212 2.208,2.212 z"
           id="path18"
           inkscape:connector-curvature="0"
           style="fill:#f8b334;fill-opacity:0" /><path
           enable-background="new    "
           d="m 206.844,182.124 c -2.941,0 -5.322,2.385 -5.322,5.323 l 0,39.033 -16.939,0 c -2.938,0 -5.323,2.381 -5.323,5.322 0,2.938 2.386,5.322 5.323,5.322 l 22.262,0 c 2.938,0 5.321,-2.385 5.321,-5.322 l 0,-44.355 c -0.001,-2.938 -2.385,-5.323 -5.322,-5.323 z"
           id="path20"
           inkscape:connector-curvature="0"
           style="opacity:0.5;fill:#999999" /><path
           enable-background="new    "
           d="m 206.844,165.934 c -2.941,0 -5.322,2.381 -5.322,5.322 l 0,0 c 0,2.938 2.381,5.322 5.322,5.322 2.938,0 5.321,-2.385 5.321,-5.322 l 0,0 c 0,-2.942 -2.384,-5.322 -5.321,-5.322 z"
           id="path22"
           inkscape:connector-curvature="0"
           style="opacity:0.5;fill:#999999" /><path
           enable-background="new    "
           d="m 43.919,131.896 c -10.497,0 -19.041,8.541 -19.041,19.041 l 0,90.021 c 0,10.502 8.543,19.041 19.041,19.041 l 172.167,0 c 10.496,0 19.035,-8.539 19.035,-19.041 l 0,-90.025 c 0,-10.496 -8.539,-19.037 -19.035,-19.037 l -172.167,0 0,0 z m 180.56,109.063 0,0 c 0,4.632 -3.766,8.396 -8.393,8.396 l -172.167,0 c -4.627,0 -8.392,-3.765 -8.392,-8.396 l -0.004,-90.021 c 0,-4.631 3.768,-8.395 8.396,-8.395 l 172.167,0 c 4.626,0 8.393,3.764 8.393,8.391 l 0,90.025 z"
           id="path24"
           inkscape:connector-curvature="0"
           style="opacity:0.5;fill:#999999" /></g></g></g><g
     id="calque01"
     transform="matrix(0.66,0,0,0.66,44.19983,44.19983)"><g
       id="g27"><path
         d="m 43.919,243.167 172.167,0 c 1.215,0 2.207,-0.989 2.207,-2.208 l 0,-90.025 c 0,-1.218 -0.992,-2.207 -2.207,-2.207 l -172.167,0 c -1.22,0 -2.211,0.989 -2.211,2.209 l 0.003,90.022 c 0,1.22 0.988,2.209 2.208,2.209 z"
         id="path29"
         inkscape:connector-curvature="0"
         style="fill:#f8b334" /><path
         enable-background="new    "
         d="m 206.844,182.124 c -2.941,0 -5.322,2.381 -5.322,5.321 l 0,39.031 -16.939,0 c -2.938,0 -5.323,2.383 -5.323,5.323 0,2.937 2.386,5.32 5.323,5.32 l 22.262,0 c 2.938,0 5.321,-2.38 5.321,-5.32 l 0,-44.354 c -0.001,-2.94 -2.385,-5.321 -5.322,-5.321 z"
         id="path31"
         inkscape:connector-curvature="0"
         style="opacity:0.5;fill:#ffffff" /><g
         id="g33"
         style="opacity:0.5"><g
           id="g35"><path
             d="m 206.844,165.93 c -2.941,0 -5.322,2.385 -5.322,5.322 l 0,0 c 0,2.938 2.381,5.324 5.322,5.324 2.938,0 5.321,-2.387 5.321,-5.324 l 0,0 c 0,-2.941 -2.384,-5.322 -5.321,-5.322 z"
             id="path37"
             inkscape:connector-curvature="0"
             style="fill:#ffffff" /></g></g><g
         id="g39"><g
           id="g41"><path
             d="m 43.919,131.896 c -10.497,0 -19.041,8.541 -19.041,19.039 l 0,90.022 c 0,10.5 8.543,19.039 19.041,19.039 l 172.167,0 c 10.496,0 19.035,-8.54 19.035,-19.039 l 0,-90.024 c 0,-10.498 -8.539,-19.037 -19.035,-19.037 l -172.167,0 0,0 z m 180.56,109.063 0,0 c 0,4.628 -3.766,8.393 -8.393,8.393 l -172.167,0 c -4.627,0 -8.392,-3.765 -8.392,-8.393 l -0.004,-90.021 c 0,-4.631 3.768,-8.396 8.396,-8.396 l 172.167,0 c 4.626,0 8.393,3.765 8.393,8.394 l 0,90.023 z"
             id="path43"
             inkscape:connector-curvature="0"
             style="fill:#f0670b" /></g></g></g></g><g
     id="calque02"
     transform="matrix(0.66,0,0,0.66,44.19983,44.19983)"><g
       id="g46"><path
         d="m 88.109,111.272 83.79,0 c 1.215,0 2.207,-0.99 2.207,-2.21 l 0,-90.025 c 0,-1.216 -0.992,-2.208 -2.207,-2.208 l -83.79,0 c -1.221,0 -2.211,0.992 -2.211,2.212 l 0.002,90.021 c -0.001,1.22 0.988,2.21 2.209,2.21 z"
         id="path48"
         inkscape:connector-curvature="0"
         style="fill:#f8b334" /><path
         enable-background="new    "
         d="m 162.654,50.227 c -2.94,0 -5.321,2.383 -5.321,5.322 l 0,39.033 -16.94,0 c -2.937,0 -5.322,2.383 -5.322,5.324 0,2.937 2.386,5.32 5.322,5.32 l 22.264,0 c 2.937,0 5.32,-2.383 5.32,-5.32 l 0,-44.358 c 0,-2.939 -2.385,-5.321 -5.323,-5.321 z"
         id="path50"
         inkscape:connector-curvature="0"
         style="opacity:0.5;fill:#ffffff" /><g
         id="g52"
         style="opacity:0.5"><g
           id="g54"><path
             d="m 162.654,34.034 c -2.94,0 -5.321,2.383 -5.321,5.322 l 0,0 c 0,2.937 2.381,5.324 5.321,5.324 2.938,0 5.322,-2.387 5.322,-5.324 l 0,0 c 0.001,-2.941 -2.384,-5.322 -5.322,-5.322 z"
             id="path56"
             inkscape:connector-curvature="0"
             style="fill:#ffffff" /></g></g><g
         id="g58"><g
           id="g60"><path
             d="M 88.109,0 C 77.611,0 69.067,8.539 69.067,19.041 l 0,90.021 c 0,10.501 8.544,19.041 19.042,19.041 l 83.79,0 c 10.496,0 19.035,-8.54 19.035,-19.041 l 0,-90.025 C 190.934,8.539 182.395,0 171.898,0 L 88.109,0 Z m 92.181,109.062 0,0 c 0,4.63 -3.767,8.395 -8.392,8.395 l -83.79,0 c -4.629,0 -8.393,-3.765 -8.393,-8.395 L 79.711,19.041 c 0,-4.632 3.768,-8.397 8.397,-8.397 l 83.791,0 c 4.625,0 8.392,3.765 8.392,8.393 l 0,90.025 -0.001,0 z"
             id="path62"
             inkscape:connector-curvature="0"
             style="fill:#f0670b" /></g></g></g></g></svg>

<?xml version="1.0" encoding="utf-8"?>
<!-- Generator: Adobe Illustrator 16.0.0, SVG Export Plug-In . SVG Version: 6.00 Build 0)  -->
<!DOCTYPE svg PUBLIC "-//W3C//DTD SVG 1.1//EN" "http://www.w3.org/Graphics/SVG/1.1/DTD/svg11.dtd">
<svg version="1.1" id="Calque_1" xmlns="http://www.w3.org/2000/svg" xmlns:xlink="http://www.w3.org/1999/xlink" x="0px" y="0px"
	 width="260px" height="260px" viewBox="0 0 260 260" enable-background="new 0 0 260 260" xml:space="preserve">
<g id="calque00">
	<g>
		<g>
			<path opacity="0.5" fill="#999999" enable-background="new    " d="M162.652,50.231c-2.94,0-5.32,2.38-5.32,5.322v39.031h-16.941
				c-2.938,0-5.322,2.381-5.322,5.322c0,2.937,2.385,5.322,5.322,5.322h22.262c2.938,0,5.322-2.383,5.322-5.322V55.553
				C167.975,52.611,165.59,50.231,162.652,50.231z"/>
			<path opacity="0.5" fill="#999999" enable-background="new    " d="M162.652,34.037c-2.94,0-5.32,2.383-5.32,5.322l0,0
				c0,2.937,2.379,5.322,5.32,5.322c2.938,0,5.322-2.385,5.322-5.322l0,0C167.975,36.417,165.59,34.037,162.652,34.037z"/>
			<path opacity="0.5" fill="#999999" enable-background="new    " d="M88.107,0.002c-10.498,0-19.04,8.54-19.04,19.039v90.022
				c0,10.5,8.542,19.039,19.04,19.039h83.79c10.498,0,19.037-8.54,19.037-19.039V19.039c0-10.497-8.539-19.037-19.037-19.037H88.107
				z M180.289,109.063L180.289,109.063c0,4.63-3.766,8.395-8.393,8.395H88.106c-4.626,0-8.393-3.765-8.393-8.395L79.71,19.041
				c0-4.63,3.771-8.393,8.397-8.393h83.79c4.629,0,8.394,3.763,8.394,8.39L180.289,109.063L180.289,109.063z"/>
		</g>
	</g>
	<g>
		<g>
			<path fill="#F8B334" fill-opacity="0" d="M43.919,243.171h172.167c1.215,0,2.207-0.991,2.207-2.212v-90.025
				c0-1.216-0.992-2.207-2.207-2.207H43.919c-1.22,0-2.211,0.992-2.211,2.211l0.003,90.021
				C41.711,242.18,42.699,243.171,43.919,243.171z"/>
			<path opacity="0.5" fill="#999999" enable-background="new    " d="M206.844,182.124c-2.941,0-5.322,2.385-5.322,5.323v39.033
				h-16.939c-2.938,0-5.323,2.381-5.323,5.322c0,2.938,2.386,5.322,5.323,5.322h22.262c2.938,0,5.321-2.385,5.321-5.322v-44.355
				C212.165,184.509,209.781,182.124,206.844,182.124z"/>
			<path opacity="0.5" fill="#999999" enable-background="new    " d="M206.844,165.934c-2.941,0-5.322,2.381-5.322,5.322l0,0
				c0,2.938,2.381,5.322,5.322,5.322c2.938,0,5.321-2.385,5.321-5.322l0,0C212.165,168.314,209.781,165.934,206.844,165.934z"/>
			<path opacity="0.5" fill="#999999" enable-background="new    " d="M43.919,131.896c-10.497,0-19.041,8.541-19.041,19.041v90.021
				c0,10.502,8.543,19.041,19.041,19.041h172.167c10.496,0,19.035-8.539,19.035-19.041v-90.025c0-10.496-8.539-19.037-19.035-19.037
				H43.919L43.919,131.896z M224.479,240.959L224.479,240.959c0,4.632-3.766,8.396-8.393,8.396H43.919
				c-4.627,0-8.392-3.765-8.392-8.396l-0.004-90.021c0-4.631,3.768-8.395,8.396-8.395h172.167c4.626,0,8.393,3.764,8.393,8.391
				V240.959z"/>
		</g>
	</g>
</g>
<g id="calque01">
	<g>
		<path fill="#F8B334" d="M43.919,243.167h172.167c1.215,0,2.207-0.989,2.207-2.208v-90.025c0-1.218-0.992-2.207-2.207-2.207H43.919
			c-1.22,0-2.211,0.989-2.211,2.209l0.003,90.022C41.711,242.178,42.699,243.167,43.919,243.167z"/>
		<path opacity="0.5" fill="#FFFFFF" enable-background="new    " d="M206.844,182.124c-2.941,0-5.322,2.381-5.322,5.321v39.031
			h-16.939c-2.938,0-5.323,2.383-5.323,5.323c0,2.937,2.386,5.32,5.323,5.32h22.262c2.938,0,5.321-2.38,5.321-5.32v-44.354
			C212.165,184.505,209.781,182.124,206.844,182.124z"/>
		<g opacity="0.5">
			<g>
				<path fill="#FFFFFF" d="M206.844,165.93c-2.941,0-5.322,2.385-5.322,5.322l0,0c0,2.938,2.381,5.324,5.322,5.324
					c2.938,0,5.321-2.387,5.321-5.324l0,0C212.165,168.311,209.781,165.93,206.844,165.93z"/>
			</g>
		</g>
		<g>
			<g>
				<path fill="#F0670B" d="M43.919,131.896c-10.497,0-19.041,8.541-19.041,19.039v90.022c0,10.5,8.543,19.039,19.041,19.039
					h172.167c10.496,0,19.035-8.54,19.035-19.039v-90.024c0-10.498-8.539-19.037-19.035-19.037H43.919L43.919,131.896z
					 M224.479,240.959L224.479,240.959c0,4.628-3.766,8.393-8.393,8.393H43.919c-4.627,0-8.392-3.765-8.392-8.393l-0.004-90.021
					c0-4.631,3.768-8.396,8.396-8.396h172.167c4.626,0,8.393,3.765,8.393,8.394V240.959z"/>
			</g>
		</g>
	</g>
</g>
<g id="calque02">
	<g>
		<path fill="#F8B334" d="M88.109,111.272h83.79c1.215,0,2.207-0.99,2.207-2.21V19.037c0-1.216-0.992-2.208-2.207-2.208h-83.79
			c-1.221,0-2.211,0.992-2.211,2.212l0.002,90.021C85.899,110.282,86.888,111.272,88.109,111.272z"/>
		<path opacity="0.5" fill="#FFFFFF" enable-background="new    " d="M162.654,50.227c-2.94,0-5.321,2.383-5.321,5.322v39.033
			h-16.94c-2.937,0-5.322,2.383-5.322,5.324c0,2.937,2.386,5.32,5.322,5.32h22.264c2.937,0,5.32-2.383,5.32-5.32V55.548
			C167.977,52.609,165.592,50.227,162.654,50.227z"/>
		<g opacity="0.5">
			<g>
				<path fill="#FFFFFF" d="M162.654,34.034c-2.94,0-5.321,2.383-5.321,5.322l0,0c0,2.937,2.381,5.324,5.321,5.324
					c2.938,0,5.322-2.387,5.322-5.324l0,0C167.977,36.415,165.592,34.034,162.654,34.034z"/>
			</g>
		</g>
		<g>
			<g>
				<path fill="#F0670B" d="M88.109,0C77.611,0,69.067,8.539,69.067,19.041v90.021c0,10.501,8.544,19.041,19.042,19.041h83.79
					c10.496,0,19.035-8.54,19.035-19.041V19.037C190.934,8.539,182.395,0,171.898,0H88.109z M180.29,109.062L180.29,109.062
					c0,4.63-3.767,8.395-8.392,8.395H88.108c-4.629,0-8.393-3.765-8.393-8.395l-0.004-90.021c0-4.632,3.768-8.397,8.397-8.397
					h83.791c4.625,0,8.392,3.765,8.392,8.393V109.062L180.29,109.062z"/>
			</g>
		</g>
	</g>
</g>
</svg>
